X:4
T:GB/7b/4 The Bonny Bunch of Roses,O-0
%%VWML:GB-7b-4-0
F:http://www.vwml.org/record/GB/7b/4
T:Version 1 of 5-0
T:Mr. Nappin (c. 50), Stanton St. John. Oxon. V. 07
C:Transcribed by Simon Furey and Lewis Jones
L:1/4
M:4/4
I:linebreak $
K:C
E | F E F G/A/ | _B A !fermata!G G | c d e d/c/ | d c/B/ !fermata!c G |$ c3/2 d/ e d/c/ | c2 G E | F G/A/ _B/A/G/F/ | G C C |]

